X: 15057
T: Gerald Thomas' Burnt Potato
R: reel
M: 4/4
K: Bminor
|:dc|BF F2 dF F2|EFAF B2 AB|DE E2 DEFA|ecAc BF F2|
dcBA BF F2|EFAF B2 AB|DE E2 DEFA|ecAc B2:|
|:Bc|defe dcBd|cded cBAc|d2 fd cdec|AB (3cBA B2 dc|
BF F2 dF F2|EFAF B2 AB|DE E2 DEFA|ecAc B2:|

